build/category/NFCSolid.svg

<svg xmlns="http://www.w3.org/2000/svg" fill="none" viewBox="0 0 24 24" focusable="false"><path d="M0 0H24V24H0z"/><path fill="#74767B" fill-rule="evenodd" d="M3 16C3 17.6569 4.34314 19 6 19L18 19C19.6569 19 21 17.6569 21 16L21 8C21 6.4467 19.8195 5.16912 18.3067 5.01549C18.2059 5.00525 18.1036 5 18 5L6 5C4.34315 5 3 6.34315 3 8L3 16ZM14.5608 14.9621C14.4201 15.2791 14.0402 15.3963 13.7295 15.2422C13.3976 15.0777 13.2746 14.6695 13.4184 14.328C13.7222 13.6064 13.8901 12.8136 13.8901 11.9815C13.8901 11.1622 13.7273 10.381 13.4323 9.66836C13.2912 9.32742 13.4148 8.92169 13.7454 8.75781C14.0576 8.60308 14.4391 8.72198 14.5786 9.04122C14.9719 9.94165 15.1901 10.9361 15.1901 11.9815C15.1901 13.0425 14.9653 14.0511 14.5608 14.9621ZM12.2528 13.8389C12.1213 14.151 11.7486 14.2605 11.4452 14.1101C11.1073 13.9426 10.9916 13.5216 11.1197 13.1669C11.2534 12.7969 11.3262 12.3978 11.3262 11.9817C11.3262 11.5774 11.2574 11.1892 11.1309 10.8281C11.007 10.4744 11.124 10.0575 11.4598 9.89104C11.7656 9.73947 12.1412 9.85169 12.2706 10.1675C12.4998 10.727 12.6262 11.3396 12.6262 11.9817C12.6262 12.6403 12.4933 13.2678 12.2528 13.8389ZM10.1099 11.9996C10.1099 12.3586 9.81892 12.6496 9.45994 12.6496C9.10095 12.6496 8.80994 12.3586 8.80994 11.9996C8.80994 11.6406 9.10095 11.3496 9.45994 11.3496C9.81892 11.3496 10.1099 11.6406 10.1099 11.9996Z"/></svg>

<svg xmlns="http://www.w3.org/2000/svg" fill="none" viewBox="0 0 24 24" focusable="false"><path fill="#74767B" fill-rule="evenodd" d="M3 16c0 1.65 1.34 3 3 3h12c1.65 0 3-1.35 3-3V8c0-1.56-1.19-2.84-2.7-2.99C18.2 5 18.1 5 18 5H6C4.34 5 3 6.34 3 8zm11.56-1.04c-.14.31-.52.43-.84.28-.33-.17-.45-.58-.31-.92.31-.72.48-1.51.48-2.34 0-.82-.17-1.6-.46-2.32-.14-.34-.02-.74.31-.91a.61.61 0 0 1 .83.29c.4.9.61 1.89.61 2.94 0 1.06-.22 2.07-.62 2.98m-2.31-1.13c-.13.32-.51.43-.81.28-.34-.17-.45-.59-.33-.95.14-.37.21-.77.21-1.18s-.07-.8-.19-1.16c-.13-.35-.01-.77.32-.93.31-.16.69-.04.82.27.22.56.35 1.17.35 1.82 0 .66-.13 1.28-.37 1.85m-2.15-1.84c0 .36-.29.65-.65.65-.35 0-.64-.29-.64-.65 0-.35.29-.65.64-.65.36 0 .65.3.65.65"/></svg>
